build/images/content/icons/icon-4.svg

<svg width="100" height="100" viewBox="0 0 100 100" fill="none" xmlns="http://www.w3.org/2000/svg">
<path d="M78.7383 44.7197V71.3898" stroke="#393C4C" stroke-width="2" stroke-linecap="round" stroke-linejoin="round"/>
<path d="M14.4305 71.3903V32.8604C14.4089 31.8291 14.7947 30.8309 15.5041 30.0821C16.2136 29.3333 17.1896 28.8943 18.2205 28.8604H66.3306" stroke="#393C4C" stroke-width="2" stroke-linecap="round" stroke-linejoin="round"/>
<path d="M56.619 72.0801H82.009V74.5301C82.0602 76.0881 81.4907 77.6027 80.4256 78.741C79.3605 79.8792 77.887 80.5479 76.329 80.6001H16.849C15.2927 80.5453 13.8218 79.8755 12.7588 78.7375C11.6959 77.5996 11.1277 76.0864 11.179 74.5301V72.0801H36.679L38.069 75.0801H55.229L56.619 72.0801Z" stroke="#393C4C" stroke-width="2" stroke-linecap="round" stroke-linejoin="round"/>
<path d="M14.4297 35.6602H66.3297" stroke="#393C4C" stroke-width="2" stroke-linecap="round" stroke-linejoin="round"/>
<path d="M53.9594 47.4303C53.5186 46.9385 52.9791 46.545 52.376 46.2757C51.7729 46.0064 51.1199 45.8672 50.4594 45.8672C49.7989 45.8672 49.1459 46.0064 48.5428 46.2757C47.9397 46.545 47.4002 46.9385 46.9594 47.4303L46.5394 47.8803L46.1194 47.4303C45.6786 46.9385 45.1391 46.545 44.536 46.2757C43.9329 46.0064 43.2799 45.8672 42.6194 45.8672C41.9589 45.8672 41.3059 46.0064 40.7028 46.2757C40.0997 46.545 39.5602 46.9385 39.1194 47.4303C38.1932 48.4439 37.6797 49.7672 37.6797 51.1403C37.6797 52.5133 38.1932 53.8367 39.1194 54.8503L39.5394 55.3003L46.5394 62.7203L53.5394 55.3003L53.9594 54.8503C54.8856 53.8367 55.3991 52.5133 55.3991 51.1403C55.3991 49.7672 54.8856 48.4439 53.9594 47.4303Z" fill="#F91A2B" stroke="#F91A2B" stroke-width="2" stroke-miterlimit="10"/>
<path d="M88.2981 35.1802V29.8002L85.5981 29.6702C85.4001 29.0006 85.1319 28.3536 84.7981 27.7402L86.6181 25.7402L82.8081 21.9202L80.8081 23.7302C80.1982 23.3965 79.5546 23.1283 78.8881 22.9302L78.7581 20.2402H73.3681L73.2381 22.9202C72.5717 23.1183 71.9281 23.3865 71.3181 23.7202L69.3181 21.9102L65.5081 25.7202L67.3281 27.7202C66.9943 28.3336 66.7262 28.9805 66.5281 29.6502L63.8281 29.7802V35.1602L66.5281 35.2902C66.7262 35.9599 66.9943 36.6068 67.3281 37.2202L65.5081 39.2202L69.3181 43.0302L71.3181 41.2202C71.9281 41.554 72.5717 41.8221 73.2381 42.0202L73.3681 44.7102H78.7581L78.8881 42.0202C79.5546 41.8221 80.1982 41.554 80.8081 41.2202L82.8081 43.0302L86.6181 39.2202L84.7981 37.2202C85.1319 36.6068 85.4001 35.9599 85.5981 35.2902L88.2981 35.1802Z" stroke="#393C4C" stroke-width="2" stroke-linejoin="round"/>
<path d="M76.0683 36.0599C75.3618 36.0619 74.6706 35.8542 74.0822 35.4631C73.4938 35.0721 73.0346 34.5152 72.7629 33.863C72.4912 33.2109 72.419 32.4928 72.5557 31.7996C72.6923 31.1064 73.0315 30.4694 73.5304 29.9691C74.0292 29.4688 74.6653 29.1278 75.3581 28.9893C76.0509 28.8507 76.7692 28.9208 77.4221 29.1907C78.0751 29.4606 78.6332 29.9182 79.0259 30.5055C79.4187 31.0928 79.6283 31.7834 79.6283 32.4899C79.6283 33.435 79.2535 34.3415 78.5862 35.0107C77.9188 35.68 77.0134 36.0573 76.0683 36.0599V36.0599Z" stroke="#393C4C" stroke-width="2" stroke-linejoin="round"/>
</svg>

<svg width="100" height="100" fill="none" xmlns="http://www.w3.org/2000/svg"><path d="M78.738 44.72v26.67m-64.308 0V32.86a3.92 3.92 0 013.79-4h48.11m-9.711 43.22h25.39v2.45a5.88 5.88 0 01-5.68 6.07h-59.48a5.88 5.88 0 01-5.67-6.07v-2.45h25.5l1.39 3h17.16l1.39-3zM14.43 35.66h51.9" stroke="#393C4C" stroke-width="2" stroke-linecap="round" stroke-linejoin="round"/><path d="M53.96 47.43a4.7 4.7 0 00-7 0l-.42.45-.42-.45a4.7 4.7 0 00-7 0 5.5 5.5 0 000 7.42l.42.45 7 7.42 7-7.42.42-.45a5.5 5.5 0 000-7.42z" fill="#F91A2B" stroke="#F91A2B" stroke-width="2" stroke-miterlimit="10"/><path d="M88.298 35.18V29.8l-2.7-.13a9.927 9.927 0 00-.8-1.93l1.82-2-3.81-3.82-2 1.81a9.842 9.842 0 00-1.92-.8l-.13-2.69h-5.39l-.13 2.68a9.847 9.847 0 00-1.92.8l-2-1.81-3.81 3.81 1.82 2a9.931 9.931 0 00-.8 1.93l-2.7.13v5.38l2.7.13c.198.67.466 1.317.8 1.93l-1.82 2 3.81 3.81 2-1.81c.61.334 1.254.602 1.92.8l.13 2.69h5.39l.13-2.69a9.836 9.836 0 001.92-.8l2 1.81 3.81-3.81-1.82-2c.334-.613.602-1.26.8-1.93l2.7-.11z" stroke="#393C4C" stroke-width="2" stroke-linejoin="round"/><path d="M76.068 36.06a3.57 3.57 0 11-.02-7.14 3.57 3.57 0 01.02 7.14v0z" stroke="#393C4C" stroke-width="2" stroke-linejoin="round"/></svg>
